X: 5244
T: Broken Pledge, The
R: reel
M: 4/4
K: Emixolydian
edBA BEEc|dBAF FDDF|EFFA Beed|BdAF Eagf|
edBA GABC|dcdB ADDF|EFFA Beed|BdAF FE E2:|
e2 BA Bdef|f2 ef fdBc|dcdB ABde|fd d2 fbaf|
edBA GBEf|f2 ef fdBA|FFFF FABe|dBAF FE E2:|

